X:77
T:Polka
R:Polka
O:France
M:2/4
K:G
d4d4|dedcB4|G2B2 G2B2|B2AB c4|\
c4c4|cdcBA4|F2A2 F2A2|A2GFG4:|\
|:G2B2 d3B|B2A2A4|A2c2 e3d|d2B2G4|\
G2B2 d3B|B2A2A4|FGA2 FGA2|A2GFG4:|
